www/assets/icons/wifi_tethering_off.svg

<svg width="24" height="24" viewBox="0 0 24 24" xmlns="http://www.w3.org/2000/svg" fill='currentColor'><path d="M3.11501 2.10498L1.69501 3.51498L4.38501 6.20498C3.08501 7.89498 2.30501 10.005 2.30501 12.295C2.30501 15.055 3.42501 17.555 5.23501 19.365L6.65501 17.945C5.20501 16.505 4.30501 14.505 4.30501 12.295C4.30501 10.545 4.87501 8.94498 5.81501 7.63498L7.24501 9.06498C6.65501 9.99498 6.30501 11.105 6.30501 12.295C6.30501 13.955 6.98501 15.445 8.06501 16.535L9.48501 15.115C8.75501 14.395 8.30501 13.405 8.30501 12.295C8.30501 11.665 8.45501 11.065 8.71501 10.535L10.325 12.145C10.325 12.195 10.305 12.245 10.305 12.295C10.305 12.845 10.535 13.345 10.895 13.705C11.255 14.065 11.755 14.295 12.305 14.295C12.355 14.295 12.405 14.285 12.465 14.275L20.085 21.895L21.495 20.485L3.11501 2.10498ZM18.005 14.165C18.195 13.575 18.305 12.945 18.305 12.295C18.305 8.98498 15.615 6.29498 12.305 6.29498C11.655 6.29498 11.025 6.39498 10.435 6.59498L12.145 8.30498C12.195 8.29498 12.255 8.29498 12.305 8.29498C14.515 8.29498 16.305 10.085 16.305 12.295C16.305 12.345 16.305 12.405 16.295 12.455L18.005 14.165ZM12.305 4.29498C16.725 4.29498 20.305 7.87498 20.305 12.295C20.305 13.515 20.035 14.665 19.535 15.695L21.025 17.185C21.835 15.745 22.305 14.075 22.305 12.295C22.305 6.77498 17.825 2.29498 12.305 2.29498C10.525 2.29498 8.86501 2.75498 7.41501 3.57498L8.89501 5.05498C9.93501 4.56498 11.085 4.29498 12.305 4.29498Z"/></svg>

<svg xmlns="http://www.w3.org/2000/svg" width="24" height="24" viewBox="0 0 24 24" fill='currentColor'><path d="m3.115 2.105-1.42 1.41 2.69 2.69a9.96 9.96 0 0 0-2.08 6.09c0 2.76 1.12 5.26 2.93 7.07l1.42-1.42a7.96 7.96 0 0 1-.84-10.31l1.43 1.43a6 6 0 0 0 .82 7.47l1.42-1.42a3.93 3.93 0 0 1-1.18-2.82c0-.63.15-1.23.41-1.76l1.61 1.61c0 .05-.02.1-.02.15 0 .55.23 1.05.59 1.41s.86.59 1.41.59c.05 0 .1-.01.16-.02l7.62 7.62 1.41-1.41zm14.89 12.06c.19-.59.3-1.22.3-1.87 0-3.31-2.69-6-6-6-.65 0-1.28.1-1.87.3l1.71 1.71c.05-.01.11-.01.16-.01 2.21 0 4 1.79 4 4 0 .05 0 .11-.01.16zm-5.7-9.87c4.42 0 8 3.58 8 8 0 1.22-.27 2.37-.77 3.4l1.49 1.49a9.95 9.95 0 0 0 1.28-4.89c0-5.52-4.48-10-10-10-1.78 0-3.44.46-4.89 1.28l1.48 1.48c1.04-.49 2.19-.76 3.41-.76"/></svg>
